resources/svg/home.svg

<svg width="15" height="15" viewBox="0 0 15 15" fill="none" xmlns="http://www.w3.org/2000/svg">
<path d="M7.8254 0.120372C7.63815 -0.0401239 7.36185 -0.0401239 7.1746 0.120372L0 6.27003V13.5C0 14.3284 0.671573 15 1.5 15H5.5C5.77614 15 6 14.7761 6 14.5V11.5C6 10.6716 6.67157 10 7.5 10C8.32843 10 9 10.6716 9 11.5V14.5C9 14.7761 9.22386 15 9.5 15H13.5C14.3284 15 15 14.3284 15 13.5V6.27003L7.8254 0.120372Z" fill="black"/>
</svg>

<svg viewBox="0 0 15 15" fill="none" xmlns="http://www.w3.org/2000/svg" fill="currentColor"><path d="M7.825.12a.5.5 0 00-.65 0L0 6.27v7.23A1.5 1.5 0 001.5 15h4a.5.5 0 00.5-.5v-3a1.5 1.5 0 013 0v3a.5.5 0 00.5.5h4a1.5 1.5 0 001.5-1.5V6.27L7.825.12z" fill="currentColor"/></svg>
